images/3.svg

<svg width="227" height="70" viewBox="0 0 227 70" fill="none" xmlns="http://www.w3.org/2000/svg">
<g clip-path="url(#clip0_3063_1185)">
<path d="M108.373 0.721191C108.373 0.721191 105.837 0.774062 104.367 0.749329C104.306 1.36343 103.597 6.92825 102.988 11.4047C102.287 15.5468 96.734 46.2739 94.8525 55.4719C94.3573 58.2492 92.8262 66.0953 92.6815 66.8793C90.9143 67.0894 88.8271 67.2835 87.4636 67.3358C87.2807 67.3419 86.976 67.401 86.8313 67.401V68.994C86.9989 68.9872 87.8825 69.0547 88.5071 69.0282C90.0078 68.9804 94.2659 68.7795 95.0734 68.7795C98.1356 68.7795 100.177 68.9811 103.011 69.0373C103.049 69.0373 103.826 69.0342 104.169 68.991V67.3813C103.932 67.3813 103.62 67.3737 103.437 67.3737C102.638 67.3987 99.6896 67.1735 98.1965 66.9711C98.3717 65.9187 100.977 50.0051 102.226 43.6413C104.603 31.8623 106.248 23.5142 106.248 23.5142L106.69 24.5507L125.467 69.0979L128.895 69.1154C128.895 69.1154 130.853 64.2915 133.176 58.8808C133.237 58.7527 133.404 58.3653 133.641 57.8117C136.078 52.1933 148.159 23.6788 148.159 23.6788C148.159 23.6788 148.274 24.1921 148.464 25.1103C149.614 30.6992 153.507 50.8406 154.337 55.7001C154.726 58.2 155.091 60.7355 155.305 62.2208C155.617 64.3241 155.823 66.3827 155.823 66.9741C155.442 66.9916 151.618 67.3358 150.17 67.398C149.965 67.3912 149.576 67.4101 149.553 67.4139V69.0342C150.071 69.0342 150.574 69.057 151.077 69.0456C154.032 68.9895 156.874 68.759 159.829 68.7605C163.151 68.7635 168.536 69.0524 171.987 69.0744C172.375 69.0744 173.068 69.0403 173.068 69.0403V67.4033C172.87 67.4018 172.002 67.3593 171.682 67.3343C170.136 67.2137 167.531 66.9734 166.868 66.9294C166.868 66.9294 166.441 64.5766 165.878 61.8592C163.623 50.9885 157.201 17.9458 156.219 9.81541C155.883 7.0209 154.931 0.746296 154.931 0.746296L151.069 0.745098C151.069 0.745098 149.096 6.37969 147.299 11.5172C146.072 15.0278 144.404 19.3618 143.132 22.6851C136.855 39.1052 129.817 54.4061 129.817 54.4061C129.817 54.4061 114.856 18.8742 114.064 16.8194C113.264 14.7639 108.373 0.721191 108.373 0.721191ZM0.830304 0.736L0.863059 4.49156L0.799072 13.6373L1.79444 13.6092L1.89857 5.47498C1.89857 5.47475 7.35655 5.42797 8.06246 5.42888L18.2401 5.43327L24.8087 5.46588L24.8193 62.0347L24.8209 66.9207L24.6822 66.9396C23.8077 67.0071 20.4431 67.2118 19.0765 67.2611C18.7703 67.271 18.5745 67.2786 18.541 67.2748L18.5471 68.93C18.7939 68.9421 19.4589 68.958 19.5465 68.955C22.7794 68.9133 27.1541 68.6335 30.2559 68.6365C33.4072 68.6381 37.8421 68.9429 40.5867 68.9747C40.8586 68.9762 41.1809 68.9497 41.4421 68.9497V67.3976L41.1016 67.4006C40.2271 67.3969 35.3908 67.0867 34.8904 67.0215C34.8698 66.2626 34.7799 62.5988 34.7799 62.5177L34.8035 5.45981L39.8044 5.44662L52.8523 5.45549L57.2072 5.51471C57.2361 5.82444 57.4563 9.94471 57.4525 10.0569C57.4426 10.3564 57.6155 13.4257 57.6086 14.1809L58.6408 14.193L58.5669 4.9427L58.6141 0.78172C54.7795 0.885597 45.0071 1.01631 29.8408 1.00835C16.834 1.00039 4.29929 0.891966 0.830304 0.736ZM61.5764 0.750808L61.5924 2.37098C62.1074 2.39881 65.1345 2.6654 65.8704 2.70119C66.4577 2.77276 67.2773 2.84601 67.8639 2.90257C67.8639 3.42127 67.873 7.00062 67.8814 8.41327C67.9796 21.8027 67.8959 51.3947 67.8562 61.865C67.8441 64.8926 67.8357 66.8435 67.8357 66.8435C67.4647 66.9542 66.6298 66.9959 65.7272 67.0566C64.9555 67.1089 62.1904 67.3402 61.5734 67.3531V68.9734C61.8293 68.9734 62.2986 69.0272 62.5659 69.0249C65.6959 69.0257 70.0478 68.639 73.254 68.6413C76.4944 68.6435 80.8211 69.0363 83.373 69.0371L83.3654 69.0386C83.5863 69.0416 84.1119 68.984 84.3328 68.9848V67.3652H84.1119C84.0129 67.344 80.7221 67.206 79.9223 67.1233C79.5033 67.0968 77.6904 66.9406 77.6675 66.8807C77.6599 66.8488 77.6523 66.3643 77.6523 65.5568C77.6599 64.7903 77.6599 63.5157 77.6599 62.1342C77.6675 51.5729 77.698 20.2059 77.7056 8.21613C77.7056 5.89892 77.7132 4.01618 77.7132 3.00622C78.4216 2.96164 81.3163 2.66039 82.3522 2.56941C82.398 2.56493 83.7691 2.48638 84.3328 2.45241V0.764152C80.7907 0.762863 76.1037 1.0384 72.6469 1.03666C69.0316 1.03446 64.5777 0.752135 61.5764 0.750808ZM225.504 0.796733C225.504 0.796733 225.131 0.798326 224.437 0.79969C222.068 0.809851 216.005 0.854131 208.913 0.892952C204.556 0.918125 201.151 0.952927 196.664 0.950729C193.518 0.987427 189.115 1.10814 186.396 1.10328C182.054 1.09623 178.512 0.829868 176.585 0.821906C175.671 0.817888 175.16 0.852159 174.909 0.836692C174.924 0.859666 174.924 2.43609 174.924 2.43609C175.092 2.46521 175.427 2.50236 175.739 2.49531C176.828 2.56825 178.87 2.7324 179.906 2.8685C180.112 2.90604 180.462 2.96359 181.437 3.07141C181.429 3.43012 181.483 7.48935 181.475 9.92818C181.475 12.1877 181.452 62.602 181.452 62.602C181.452 62.6839 181.338 66.6562 181.338 66.9769C179.616 67.2704 176.31 67.4508 175.183 67.4554H174.848V69.059C175.008 69.0583 175.747 69.0871 176.166 69.0871C177.986 69.0863 182.679 68.7982 187.47 68.7952C190.829 68.7921 194.524 68.9172 198.264 68.9703C202.872 69.034 207.534 69.037 211.724 69.0962C218.633 69.1932 224.232 69.2016 226.052 69.2039C226.052 69.2039 226.273 56.4483 226.273 55.4201L225.275 55.4315C225.275 56.5165 224.872 60.5571 224.856 60.7337C224.727 62.2547 224.59 63.8485 224.483 64.634C224.483 64.634 223.996 64.6727 223.76 64.6682C222.625 64.6469 218.999 64.7781 218.922 64.7781L202.751 64.7849L191.393 64.5954L191.317 61.4594L191.309 37.1113C193.335 37.043 196.428 36.9361 198.31 36.9399C199.909 36.9429 203.68 36.8535 205.79 36.858C210.917 36.8671 215.472 36.8997 215.837 36.9103C216.683 36.9346 218.252 36.9862 218.846 37.0226C218.869 37.2371 218.938 37.5723 218.945 37.667C219.25 39.5315 219.418 40.8228 219.623 42.6531C219.654 42.8177 219.669 42.9769 219.692 43.127H220.857C220.857 43.127 220.888 42.4727 220.873 42.0655C220.85 40.6302 220.758 37.7671 220.758 34.594C220.751 32.3944 220.88 29.0316 220.895 27.4143C220.903 26.9768 220.85 26.666 220.85 26.5409L219.783 26.5613C219.776 26.9109 219.692 27.4265 219.692 27.4265C219.6 28.632 219.258 30.1728 218.983 31.7984C218.907 32.0008 218.854 32.2837 218.854 32.2837C218.732 32.3246 215.388 32.502 215.091 32.4997C214.977 32.499 210.109 32.6347 210.025 32.6347L191.317 32.565L191.347 5.71624C191.347 5.71632 193.724 5.63276 194.387 5.63633C197.083 5.63678 201.471 5.61237 205.942 5.61858C212.486 5.62647 218.839 5.66703 218.854 5.67628C218.892 5.69486 220.827 5.72163 220.865 5.75476C220.911 5.791 223.333 5.86311 223.927 5.88214C223.927 5.88214 223.973 6.08201 224.003 6.33382C224.27 9.16465 224.491 12.5266 224.59 13.7178L224.597 14.1947L225.595 14.1917C225.595 12.4485 225.504 7.11016 225.489 3.71377C225.481 2.62292 225.504 1.73458 225.504 1.22915V0.796733Z" fill="white"/>
</g>
<defs>
<clipPath id="clip0_3063_1185">
<rect width="227" height="70" fill="white"/>
</clipPath>
</defs>
</svg>

<svg xmlns="http://www.w3.org/2000/svg" width="227" height="70" fill="none" viewBox="0 0 227 70"><g clip-path="url(#a)"><path fill="#fff" d="M108.373.721s-2.536.053-4.006.028c-.061.614-.77 6.18-1.379 10.656-.701 4.142-6.254 34.869-8.135 44.067-.496 2.777-2.027 10.623-2.171 11.407-1.768.21-3.855.404-5.218.457-.183.006-.488.065-.633.065v1.593c.168-.007 1.051.06 1.676.034 1.5-.048 5.759-.249 6.566-.249 3.063 0 5.104.202 7.938.258.038 0 .815-.003 1.158-.046v-1.61c-.237 0-.549-.007-.732-.007-.799.025-3.747-.2-5.24-.403.175-1.052 2.78-16.966 4.029-23.33 2.377-11.779 4.022-20.127 4.022-20.127l.442 1.037 18.777 44.547 3.428.017s1.958-4.823 4.281-10.234a50 50 0 0 0 .465-1.07c2.437-5.618 14.518-34.132 14.518-34.132s.115.513.305 1.431c1.15 5.59 5.043 25.73 5.873 30.59.389 2.5.754 5.035.968 6.52.312 2.104.518 4.163.518 4.754-.381.018-4.205.362-5.653.424a8 8 0 0 0-.617.016v1.62c.518 0 1.021.023 1.524.012 2.955-.056 5.797-.287 8.752-.286 3.322.003 8.707.292 12.158.314.388 0 1.081-.034 1.081-.034v-1.637a37 37 0 0 1-1.386-.069c-1.546-.12-4.151-.36-4.814-.405 0 0-.427-2.352-.99-5.07-2.255-10.87-8.677-43.913-9.659-52.044-.336-2.794-1.288-9.069-1.288-9.069h-3.862l-3.77 10.771c-1.227 3.51-2.895 7.845-4.167 11.168-6.277 16.42-13.315 31.721-13.315 31.721s-14.961-35.532-15.753-37.587c-.8-2.055-5.691-16.098-5.691-16.098M.83.736l.033 3.756L.8 13.637l.995-.028.105-8.134s5.458-.047 6.163-.046l10.178.004 6.569.033.01 56.569.002 4.886-.139.019c-.874.067-4.239.272-5.605.321-.307.01-.503.018-.536.014l.006 1.655c.247.012.912.028 1 .025 3.232-.042 7.607-.322 10.709-.319 3.151.002 7.586.307 10.33.339.273.001.595-.025.856-.025v-1.552l-.34.003c-.875-.004-5.711-.314-6.212-.38-.02-.758-.11-4.422-.11-4.503l.023-57.058 5.001-.013 13.048.008 4.355.06c.03.31.25 4.43.245 4.542-.01.3.163 3.369.157 4.124l1.032.012-.074-9.25.047-4.161c-3.834.104-13.607.234-28.773.226C16.834 1 4.299.892.83.736m60.746.015.016 1.62c.515.028 3.543.294 4.278.33.588.072 1.407.145 1.994.202 0 .518.009 4.098.017 5.51.099 13.39.015 42.982-.025 53.452l-.02 4.979c-.371.11-1.206.152-2.109.213-.772.052-3.537.283-4.154.296v1.62c.256 0 .726.054.993.052 3.13 0 7.482-.386 10.688-.384 3.24.002 7.567.395 10.119.396l-.008.002c.221.003.747-.055.968-.054v-1.62h-.221c-.1-.021-3.39-.159-4.19-.242-.419-.026-2.232-.182-2.254-.242a29 29 0 0 1-.016-1.324c.008-.767.008-2.041.008-3.423.008-10.561.038-41.928.046-53.918 0-2.317.007-4.2.007-5.21.709-.044 3.603-.346 4.64-.437.045-.004 1.416-.083 1.98-.117V.764c-3.542-.001-8.23.274-11.686.273-3.615-.003-8.07-.285-11.07-.286m163.928.046L224.437.8c-2.369.01-8.432.054-15.524.093-4.357.025-7.762.06-12.249.058-3.146.036-7.549.157-10.268.152-4.342-.007-7.884-.273-9.811-.281-.914-.004-1.425.03-1.676.015.015.023.015 1.6.015 1.6.168.028.503.065.815.058 1.089.073 3.131.237 4.167.373.206.038.556.096 1.531.203-.008.36.046 4.418.038 6.857l-.023 52.674c0 .082-.114 4.054-.114 4.375-1.722.293-5.028.474-6.155.478h-.335v1.604c.16 0 .899.028 1.318.028 1.82 0 6.513-.289 11.304-.292 3.359-.003 7.054.122 10.794.175 4.608.064 9.27.067 13.46.126 6.909.097 12.508.106 14.328.108 0 0 .221-12.756.221-13.784l-.998.011c0 1.086-.403 5.126-.419 5.303-.129 1.52-.266 3.114-.373 3.9 0 0-.487.039-.723.034-1.135-.021-4.761.11-4.838.11l-16.171.007-11.358-.19-.076-3.136-.008-24.348c2.026-.068 5.119-.175 7.001-.171 1.599.003 5.37-.087 7.48-.082 5.127.01 9.682.042 10.047.052.846.025 2.415.076 3.009.113.023.214.092.55.099.644.305 1.864.473 3.156.678 4.986.031.165.046.324.069.474h1.165s.031-.654.016-1.062c-.023-1.435-.115-4.298-.115-7.471-.007-2.2.122-5.562.137-7.18.008-.437-.045-.748-.045-.873l-1.067.02c-.007.35-.091.866-.091.866-.092 1.205-.434 2.746-.709 4.371-.076.203-.129.486-.129.486-.122.04-3.466.218-3.763.216-.114-.001-4.982.135-5.066.135l-18.708-.07.03-26.849s2.377-.083 3.04-.08c2.696 0 7.084-.024 11.555-.017 6.544.007 12.897.048 12.912.057.038.019 1.973.046 2.011.079.046.036 2.468.108 3.062.127 0 0 .046.2.076.452.267 2.83.488 6.193.587 7.384l.007.477.998-.003c0-1.744-.091-7.082-.106-10.478-.008-1.091.015-1.98.015-2.485z"/></g><defs><clipPath id="a"><path fill="#fff" d="M0 0h227v70H0z"/></clipPath></defs></svg>
